src/icons/semgrep.svg

<?xml version="1.0" encoding="UTF-8"?>
<svg fill="none" version="1.1" viewBox="0 0 24 24" xmlns="http://www.w3.org/2000/svg">
 <path d="m5.918 8.1015c-2.153 0-3.8984 1.7454-3.8984 3.8984 0 2.1531 1.7454 3.8984 3.8984 3.8984 1.2305 0 2.3265-0.57041 3.041-1.4609 0.00164-0.0021 0.00231-0.0039 0.00391-0.0059l0.00195 2e-3c0.03742-0.047 0.072182-0.09388 0.10742-0.14258 0.14952-0.19584 0.25787-0.36676 0.35938-0.60156 0.010265-0.02131 0.01941-0.04294 0.029297-0.06445 0.0099-0.0217 0.019787-0.04451 0.029297-0.06641h0.13086c-0.02822 0.1165-0.068297 0.23196-0.11719 0.34766-0.10896 0.2337-0.24325 0.48168-0.38086 0.70508-0.00226 0.0035-0.0036 0.0062-0.00586 0.0098 0.36518 0.4018 0.81017 0.72356 1.3066 0.94336 0.4965 0.2198 1.0333 0.33368 1.5762 0.33398 0.5429-2.99e-4 1.0797-0.11418 1.5762-0.33398 0.4965-0.2198 0.94144-0.54156 1.3066-0.94336-0.0022-0.0036-0.0037-0.0063-0.0059-0.0098-0.1377-0.2234-0.27391-0.47128-0.38281-0.70508-0.0489-0.1156-0.08899-0.23116-0.11719-0.34766h0.13086c0.02275 0.05206 0.04539 0.10346 0.07031 0.1543 0.0985 0.22254 0.2032 0.38891 0.34766 0.57812 0.0074 0.01017 0.016 0.01918 0.02344 0.0293 0.0028 0.0038 5e-3 8e-3 0.0078 0.01172 0.02519 0.03406 0.0518 0.06649 0.07813 0.09961 3.2e-4 4.01e-4 -3.2e-4 0.0016 0 2e-3l2e-3 2e-3c0.71444 0.89175 1.8134 1.4629 3.0449 1.4629 2.153 0 3.8984-1.7453 3.8984-3.8984 2e-6 -2.1531-1.7454-3.8985-3.8984-3.8985-0.5459 4e-5 -1.0872 0.11406-1.5859 0.33594-0.4987 0.22188-0.94505 0.54576-1.3105 0.95117 0.2388 0.38575 0.41661 0.67692 0.53711 0.97461h-0.13672c-0.2381-0.38876-0.31902-0.54305-0.54492-0.80273-0.71449-0.88982-1.8111-1.459-3.041-1.459-1.2298 0-2.3265 0.56931-3.041 1.459-0.22591 0.25968-0.30884 0.41397-0.54688 0.80273h-0.13477c0.12054-0.29769 0.29638-0.58886 0.53516-0.97461-0.3655-0.40541-0.81183-0.72929-1.3105-0.95117-0.49873-0.22188-1.0381-0.3359-1.584-0.33594zm0 1.7148c1.2057 0 2.1836 0.9779 2.1836 2.1836s-0.97788 2.1836-2.1836 2.1836-2.1836-0.9779-2.1836-2.1836c0-1.2057 0.97788-2.1836 2.1836-2.1836zm6.082 0c1.2057 0 2.1836 0.9779 2.1836 2.1836s-0.97789 2.1836-2.1836 2.1836-2.1836-0.9779-2.1836-2.1836c0-0.0376 8.31e-5 -0.07413 0.00195-0.11133 0.058483-1.1536 1.0136-2.0723 2.1816-2.0723zm6.082 0c1.2057 0 2.1816 0.9779 2.1816 2.1836s-0.97594 2.1836-2.1816 2.1836c-1.2058 0-2.1836-0.9779-2.1836-2.1836 0-1.2057 0.9778-2.1836 2.1836-2.1836z" fill="#00bfa5"/>
</svg>

<svg viewBox="0 0 24 24" xmlns="http://www.w3.org/2000/svg">
  <path
    d="M5.91799 8.1015C3.76499 8.1015 2.01959 9.8469 2.01959 11.9999C2.01959 14.153 3.76499 15.8983 5.91799 15.8983C7.14849 15.8983 8.24449 15.3279 8.95899 14.4374C8.96063 14.4353 8.9613 14.4335 8.9629 14.4315L8.96485 14.4335C9.00227 14.3865 9.03703 14.3396 9.07227 14.2909C9.22179 14.0951 9.33014 13.9242 9.43165 13.6894C9.44192 13.6681 9.45106 13.6464 9.46095 13.6249C9.47085 13.6032 9.48074 13.5804 9.49025 13.5585H9.62111C9.59289 13.675 9.55281 13.7905 9.50392 13.9062C9.39496 14.1399 9.26067 14.3878 9.12306 14.6112C9.1208 14.6147 9.11946 14.6174 9.1172 14.621C9.48238 15.0228 9.92737 15.3446 10.4238 15.5644C10.9203 15.7842 11.4571 15.8981 12 15.8984C12.5429 15.8981 13.0797 15.7842 13.5762 15.5644C14.0727 15.3446 14.5176 15.0228 14.8828 14.621C14.8806 14.6174 14.8791 14.6147 14.8769 14.6112C14.7392 14.3878 14.603 14.14 14.4941 13.9062C14.4452 13.7906 14.4051 13.675 14.3769 13.5585H14.5078C14.5305 13.6106 14.5531 13.662 14.5781 13.7128C14.6766 13.9353 14.7813 14.1017 14.9257 14.2909C14.9331 14.3011 14.9417 14.3101 14.9492 14.3202C14.952 14.324 14.9542 14.3282 14.957 14.3319C14.9822 14.366 15.0088 14.3984 15.0351 14.4316C15.0354 14.432 15.0348 14.4332 15.0351 14.4336L15.0371 14.4356C15.7515 15.3273 16.8505 15.8985 18.082 15.8985C20.235 15.8985 21.9804 14.1532 21.9804 12.0001C21.9804 9.84695 20.235 8.10155 18.082 8.10155C17.5361 8.10159 16.9948 8.21561 16.4961 8.43749C15.9974 8.65937 15.551 8.98325 15.1856 9.38866C15.4244 9.77441 15.6022 10.0656 15.7227 10.3633H15.586C15.3479 9.97451 15.267 9.82022 15.0411 9.56054C14.3266 8.67072 13.23 8.10154 12.0001 8.10154C10.7703 8.10154 9.67357 8.67085 8.95907 9.56054C8.73316 9.82022 8.65023 9.97451 8.41219 10.3633H8.27742C8.39796 10.0656 8.5738 9.77441 8.81258 9.38866C8.44708 8.98325 8.00075 8.65937 7.50208 8.43749C7.00335 8.21561 6.46389 8.10154 5.91799 8.1015ZM5.91799 9.8163C7.12369 9.8163 8.10159 10.7942 8.10159 11.9999C8.10159 13.2056 7.12371 14.1835 5.91799 14.1835C4.71227 14.1835 3.73439 13.2056 3.73439 11.9999C3.73439 10.7942 4.71227 9.8163 5.91799 9.8163ZM12 9.8163C13.2057 9.8163 14.1836 10.7942 14.1836 11.9999C14.1836 13.2056 13.2057 14.1835 12 14.1835C10.7943 14.1835 9.81639 13.2056 9.81639 11.9999C9.81639 11.9623 9.81648 11.9258 9.81834 11.8886C9.87683 10.735 10.832 9.8163 12 9.8163ZM18.082 9.8163C19.2877 9.8163 20.2636 10.7942 20.2636 11.9999C20.2636 13.2056 19.2877 14.1835 18.082 14.1835C16.8762 14.1835 15.8984 13.2056 15.8984 11.9999C15.8984 10.7942 16.8762 9.8163 18.082 9.8163Z"
    fill="#00BFA5"
  />
</svg>
